X:1
T:C Major Oliver Holden, 1800
T:Based on Psalm 48
T:Dedicatory Anthem Composed for the dedication of the new Meeting-House in Charlestown No copyright. Transcribed from Plain Psalmody, 1800.
%%score [ 1 2 3 ]
L:1/8
M:2/4
K:C
V:1 treble nm="Treble" snm="Tr."
V:2 treble-8 nm="Tenor" snm="T."
V:3 bass nm="Bass" snm="B."
V:1
 C2 | E2 G2 | c3 c | ed ce | ed cB | c2 c2 | z4 | z4 | z4 | z4 | f2 e2 | d2 d2 | g2 fe | d3 d | %14
w: ||||||||||||||
 c4 | e3 d | c2 G2 | E2 G2 | c2 c2 | z2 c2 | d2 c2 | B2 A2 | G4 | AG AB | c2 c2 | B2 c2 | de fe | %27
w: |Beau- ti-|ful for|si- tu-|a- tion,|The|joy of|the whole|earth,|Is * Mount *|Zi- on:|On the|sides * of the|
 e2 d2 | z2 e2 | fe dc | [Ge]2 [Bd]2 | c4 | C2 D2 | ED EF | G>G G2 | AG FE | D2 D2 | c2 d2 | %38
w: north, *|The|ci- * ty of|the great|king.||||for * a *|re- fuge,||
 ed ef | g>g g2 | f2 e2 | d4 | c4 | z4 | cB cd | e4 | cB cd | cB AG | d2 B2 | G2 ^F2 | G4 | c2 cc | %52
w: ||||||As * we have|heard,|||||||
 cf ed | c2 B2 | c2 c2 :| z4 | z4 | z4 | z4 | z4 | z4 | z4 | c2 d2 | e2 cd | c2 A2 | G2 G2 | %66
w: ||||||||||We have||||
 c2 c2 | dc de | fd ec | d2 c2 | B4 | c4 | d3 e | fd c2 | B4 | c2 c2 | z4 |: z4 | z4 | G2 B2 | %80
w: |||||||||||||Let Mount|
 d2 cc | B>A G2 | B2 Gd | c4 | z4 | z4 | z4 | z4 | z4 | e2 e2 | c2 cB | cBcd | edef | g4 | z2 f>e | %95
w: Zi- on re-|joice~ * *|Zi- on re-|joice,||||||||||||
 dc de | c2 cB | c4 :: z4 | z4 | z4 | z4 | z4 | z4 | z4 | z4 | z4 | z4 | z4 | c2 d2 | c4 | e2 f2 | %112
w: ||||||||||||||For this|God||
 e4 | d2 c2 | d4 | g2 fe | d3 d | cc z2 | f2 e2 | d2 c2 | df ea | g2 e2 | d4 | c4 :| %124
w: ||||||||||||
V:2
 C2 | E2 G2 | c3 G | cB c2 | cB cd | e2 e2 | f2 e2 | d2 d2 | ed cB | c4 | d2 e2 | f2 g2 | c2 dc | %13
w: Great|is the|Lord, And|great- * ly|to * be *|prais- ed|In the|ci- ty|of * our *|God,|In the|moun- tain|of His *|
 B3 B | c4 | z4 | z4 | z4 | z4 | z4 | z4 | z4 | z4 | z4 | z4 | z4 | z4 | z4 | z4 | z4 | z4 | z4 | %32
w: ho- li-|ness.||||||||||||||||||
 C2 D2 | ED EF | G>G G2 | z4 | z4 | e2 d2 | cB cd | e>e e2 | d2 c2 | B4 | c4 | z4 | z4 | z4 | %46
w: God is|known * in her|pa- la- ces,|||God is|known * in her|pa- la- ces|for a|re-|fuge.||||
 ed ef | ed cB | f2 d2 | c2 A2 | B4 | e2 ee | fd cf | e2 d2 | e2 e2 :| z4 | z4 | z4 | z4 | c2 d2 | %60
w: So * we have|seen * in the|ci- ty|of our|God,|God will es-|tab- * lish *|it for-|ev- er.|||||We have|
 e2 cd | c2 A2 | G2 G2 | c2 GG | G2 d2 | e2 e2 | e2 e2 | fe dc | dB ce | f2 e2 | d4 | e4 | %72
w: thought of Thy|lo- ving-|kind- ness,|thought of Thy|lo- ving-|kind- ness,|We have|thought * of Thy|lo- * ving- *|kind- ness,|O|God,|
 f3 [ce] | df e2 | d4 | e2 e2 | z4 |: z4 | z4 | z4 | z4 | G2 B2 | d2 cB | c4 | z4 | e2 e2 | dc de | %87
w: in the|midst * of|Thy|tem- ple.||||||Let Mount|Zi- on re-|joice,||Let the|daugh- * ters of|
 cB cd | c4 | c2 c2 | e2 ed | e4 | cB cd | e4 | z2 d>c | de fg | e2 ed | e4 :: z4 | z4 | z4 | z4 | %102
w: Ju- * dah be|glad,|Let Mount|Zi- on re-|joice~|||Let the|daugh- * ters of|Ju- dah be|glad.|||||
 z4 | z4 | z4 | c2 d2 | c4 | e2 f2 | e4 | G2 B2 | G4 | c2 d2 | c4 | B2 c2 | B4 | e2 dc | g3 f | %117
w: |||For this|God|is our|God,|For this|God|is our|God,|For this|God|is our *|God for-|
 ee z2 | B2 c2 | G2 G2 | Bd cf | e2 c2 | f4 | e4 :| %124
w: ev- er.|Hel- le-|lu- jah,|Hal- * le- *|lu- jah,|A-|men.|
V:3
 C,2 | E,2 G,2 | C3 z | z4 | z4 | z4 | D2 B,2 | A,2 G,2 | C2 G,2 | C,4 | D2 C2 | B,2 G,2 | %12
w: ||||||||||||
 E,2 F,2 | G,3 G, | C,4 | z4 | z4 | z4 | z4 | z2 C2 | B,2 A,2 | G,2 D,2 | G,4 | z4 | z4 | G,2 A,2 | %26
w: |||||||The|joy of|the whole|earth,|||On the|
 G,2 G,G, | G,4 | z2 C2 | DC B,A, | G,2 G,2 | C,4 | C,2 D,2 | E,D, E,F, | G,>G, G,2 | F,E, D,C, | %36
w: sides of the|north,|The|ci- * ty of|the great|king.||||for * a *|
 G,,2 G,,2 | C,2 G,2 | C2 CG, | C>C C2 | F,2 E,2 | G,4 | C,4 | z4 | z4 | z4 | z4 | z2 D,D, | %48
w: re- fuge,||||||||||||
 G,2 G,2 | D,2 D,2 | [G,,G,]4 | C,2 C,C, | F,2 G,2 | E,2 G,2 | C,2 C,2 :| z4 | C,2 E,2 | G,2 E,G, | %58
w: ||||||||We have|thought of Thy|
 C2 A,2 | G,2 G,2 | C,2 C,G, | E,2 F,2 | E,2 G,2 | E,2 C,G, | E,2 F,2 | E,2 C,2 | C,2 C,2 | %67
w: lo- ving-|kind- ness,|Thought of Thy|lo- ving-|kind- ness,|||||
 G,2 G,C | G,2 E,2 | G,2 C,2 | G,4 | E,4 | F,3 E, | G,2 G,2 | G,4 | C,2 C,2 | z4 |: C,2 G,2 | %78
w: ||||||||||Let Mount|
 C2 E,C, | G,4- | G,4- | G,4 | G,2 E,G, | C,4 | z4 | z4 | z4 | z4 | z4 | C2 C2 | C,2 C,G, | E,4 | %92
w: Zi- on re-|joice~|||Zi- on re-|joice,|||||||||
 E,F,E,D, | C,4 | z2 G,>G, | G,2 G,G, | E,F, G,G, | C,4 :: C2 B,2 | A,4 | G,2 F,2 | E,4 | z2 z D, | %103
w: ||||||For this|God|is our|God|for|
 C,D, E,F, | G,2 G,2 | z4 | z4 | C2 D2 | C4 | E,2 D,2 | C,4 | C2 G,2 | C,4 | G,2 G,2 | G,4 | %115
w: ev- * er and|ev- er|||For this|God|is our|God,|||||
 E,2 F,2 | G,3 G, | C,C, z2 | D2 C2 | B,2 C2 | G,3 F, | E,2 F,2 | G,4 | C,4 :| %124
w: |||||||||

